X: 38
T: Praeludia organi op. 5 – Allegro
C: Franciszek Walczyński
%%abc-version 2.0
%%abcx-abcm2ps-target-version 5.9.1 (29 Sep 2008)
%%abc-creator hum2abc beta
%%abcx-conversion-date 2021/10/04 07:38:39
%%abc-edited-by Andrzej Borzym
%%abc-edited-by Krzysztof Stępień
%%abcx-initial-encoding-date 2021-07-26
%%humdrum-veritas 4208496045
%%humdrum-veritas-data 980572711
%%linebreak <none>
%%barnumbers 0
L: 1/4
M: C|
N: Derived from pl-kozmzk--mzk-m-159--027_walczynski-franciszek--praeludia-organi-op-5-allegro.krn
Q: "27. Allegro."
%%staves {1 2}
V: 1 clef=treble
V: 2 clef=bass
K: F#
[V:1] zfed & xAGF | 
[V:2] z4 & z4 | 
[V:1] ^^c4 & EBAG | 
[V:2] z4 & z4 | 
[V:1] dcB^B & ^^F2G^F | 
[V:2] z4 & z4 | 
[V:1] c=B.A.G & E2FE | 
[V:2] z2zA, & z2z^^C, | 
[V:1] F^^FGA & D4- | 
[V:2] A,2G,^^F, & D,C,B,,A,, | 
[V:1] B^Bc^^c & D2G2- | 
[V:2] G,4 & G,,F,E,=E, | 
[V:1] d4- & GFED | 
[V:2] A,2G,F, & D,4 | 
[V:1] d2^^c2 & E2-E/B/A/G/ | 
[V:2] B,2A,2- & G,2A,A,, | 
[V:1] d4- & FGFE | 
[V:2] A,B,A,G, & D,4 | 
[V:1] !fermata!d4 & D4 |]  
[V:2] F,4 & !fermata!D,4 |]  


